assets/images/gcg-logo-text.svg

<svg display="block" fill="none" preserveAspectRatio="none" viewBox="0 0 240.932 136.846" xmlns="http://www.w3.org/2000/svg"><g fill="#231815"><path d="m78.7521 63.7029c-1.385 0-2.3881.6601-3.0381 1.1821-.111.0811-2.1539 1.5779-4.8519 3.8411-.7371-3.687-1.422-6.5142-2.0881-9.2671l-.217-.8989c-.8359-3.4622-1.558-6.4522-1.6899-8.157-.324-2.8052-1.22-6.0252-5.307-6.0252-3.1651 0-4.979 3.104-6.6961 6.5391-7.541 14.5791-23.897 37.708-35.6839 37.708-7.663 0-8.808-7.105-8.808-11.3401 0-26.749 33.7479-65.0478 57.3189-65.0478 2.6081 0 8.674.676 8.674 6.9409 0 7.5791-3.9259 11.501-5.6809 13.2551-1.3471 1.346-2.182 2.6089-2.182 4.7368 0 2.667 2.3139 4.919 5.053 4.919 2.458 0 3.9449-1.5379 5.249-3.1018 2.6329-3.1111 7.5329-8.9041 7.5329-19.9422 0-9.95091-7.3189-16.38084-18.646-16.38084-29.1009 0-67.691 42.54104-67.691 74.62084 0 12.6231 7.42407 20.7791 18.9131 20.7791 7.7179 0 16.2569-5.1199 25.38-15.2151 6.4149-7.0989 11.736-15.156 15.0399-20.6089.6841 3.415 1.6321 8.3369 2.6211 14.0659-12.2161 11.6392-26.3701 28.5291-26.3701 44.2921 0 9.263 6.927 16.248 16.114 16.248 14.9541 0 22.7781-16.554 22.7781-32.907 0-7.491-.724-16.6221-1.994-25.2181 4.4379-3.9089 7.837-6.3999 8.306-6.7128.058-.0381.116-.0821.1699-.126 1.234-1.0291 1.9141-2.376 1.9141-3.7932 0-2.377-1.886-4.386-4.12-4.386zm-13.7151 39.5701c0 16.019-6.5759 24.4-13.0719 24.4-4.4021 0-6.542-2.314-6.542-7.075 0-9.148 6.282-20.568 18.2169-33.1771.733 5.2642 1.397 11.123 1.397 15.8521z"/><path d="m159.649 67.302c-1.942 0-2.855.832-4.758 2.7351-2.241 2.3059-6.902 7.1038-13.123 11.355-7.542 5.1538-14.843 7.7668-21.702 7.7668-11.932 0-25.865-6.9839-25.865-26.666 0-25.3508 21.141-53.18797 40.393-53.18797 6.451 0 9.34 5.09297 9.34 10.14107 0 5.4371-1.712 10.0799-3.296 12.085-1.114 1.3909-1.9 2.533-1.9 4.574 0 2.5051 2.407 4.7859 5.051 4.7859 1.59 0 3.833-.6438 5.495-3.7359 2.105-4.0471 4.356-10.685 4.356-17.176 0-12.69702-7.088-19.979-19.447-19.979-23.752 0-49.8309 32.636-49.8309 62.3589 0 25.0332 17.8649 36.239 35.5729 36.239 20.412 0 38.809-18.374 42.619-23.2939.028-.0369.055-.076.081-.1141.863-1.2959 1.266-2.323 1.266-3.2348 0-2.6092-1.867-4.6531-4.252-4.6531z"/><path d="m233.347 63.7029c-1.385 0-2.388.6601-3.038 1.1821-.111.0811-2.154 1.5779-4.852 3.8411-.737-3.687-1.422-6.5142-2.088-9.2671l-.218-.8989c-.835-3.4622-1.557-6.4522-1.689-8.157-.324-2.8052-1.22-6.0252-5.307-6.0252-3.165 0-4.979 3.104-6.696 6.5391-7.541 14.5791-23.897 37.708-35.684 37.708-7.663 0-8.808-7.105-8.808-11.3401 0-26.749 33.748-65.0478 57.319-65.0478 2.608 0 8.674.676 8.674 6.9409 0 7.5791-3.926 11.501-5.681 13.2551-1.347 1.346-2.182 2.6089-2.182 4.7368 0 2.667 2.314 4.919 5.053 4.919 2.458 0 3.945-1.5379 5.248-3.1018 2.634-3.1111 7.534-8.9041 7.534-19.9422 0-9.95091-7.319-16.38084-18.646-16.38084-29.101 0-67.691 42.54104-67.691 74.62084 0 12.6231 7.424 20.7791 18.913 20.7791 7.718 0 16.257-5.1199 25.38-15.2151 6.415-7.0989 11.736-15.156 15.04-20.6089.684 3.415 1.632 8.3369 2.621 14.0659-12.216 11.6392-26.37 28.5291-26.37 44.2921 0 9.263 6.927 16.248 16.114 16.248 14.954 0 22.778-16.554 22.778-32.907 0-7.491-.724-16.6221-1.994-25.2181 4.438-3.9089 7.837-6.3999 8.306-6.7128.058-.0381.115-.0821.17-.126 1.234-1.0291 1.914-2.376 1.914-3.7932 0-2.377-1.886-4.386-4.12-4.386zm-13.715 39.5701c0 16.019-6.576 24.4-13.072 24.4-4.402 0-6.542-2.314-6.542-7.075 0-9.148 6.282-20.568 18.217-33.1771.733 5.2642 1.397 11.123 1.397 15.8521z"/></g></svg>

<svg preserveAspectRatio="none" width="100%" height="100%" overflow="visible" style="display: block;" viewBox="0 0 240.932 136.846" fill="none" xmlns="http://www.w3.org/2000/svg">
<g id="&#227;&#130;&#176;&#227;&#131;&#171;&#227;&#131;&#188;&#227;&#131;&#151; 114">
<path id="&#227;&#131;&#145;&#227;&#130;&#185; 93" d="M78.7521 63.7029C77.3671 63.7029 76.364 64.363 75.714 64.885C75.603 64.9661 73.5601 66.4629 70.8621 68.7261C70.125 65.0391 69.4401 62.2119 68.774 59.459L68.557 58.5601C67.7211 55.0979 66.999 52.1079 66.8671 50.4031C66.5431 47.5979 65.6471 44.3779 61.5601 44.3779C58.395 44.3779 56.5811 47.4819 54.864 50.917C47.323 65.4961 30.967 88.625 19.1801 88.625C11.5171 88.625 10.3721 81.52 10.3721 77.2849C10.3721 50.5359 44.12 12.2371 67.691 12.2371C70.2991 12.2371 76.365 12.9131 76.365 19.178C76.365 26.7571 72.4391 30.679 70.6841 32.4331C69.337 33.7791 68.5021 35.042 68.5021 37.1699C68.5021 39.8369 70.816 42.0889 73.5551 42.0889C76.0131 42.0889 77.5 40.551 78.8041 38.9871C81.437 35.876 86.337 30.083 86.337 19.0449C86.337 9.09399 79.0181 2.66406 67.691 2.66406C38.5901 2.66406 0 45.2051 0 77.2849C0 89.908 7.42407 98.064 18.9131 98.064C26.631 98.064 35.17 92.9441 44.2931 82.8489C50.708 75.75 56.0291 67.6929 59.333 62.24C60.0171 65.655 60.9651 70.5769 61.9541 76.3059C49.738 87.9451 35.584 104.835 35.584 120.598C35.584 129.861 42.511 136.846 51.698 136.846C66.6521 136.846 74.4761 120.292 74.4761 103.939C74.4761 96.448 73.7521 87.3169 72.4821 78.7209C76.92 74.812 80.3191 72.321 80.7881 72.0081C80.8461 71.97 80.9041 71.926 80.958 71.8821C82.192 70.853 82.8721 69.5061 82.8721 68.0889C82.8721 65.7119 80.9861 63.7029 78.7521 63.7029ZM65.037 103.273C65.037 119.292 58.4611 127.673 51.9651 127.673C47.563 127.673 45.4231 125.359 45.4231 120.598C45.4231 111.45 51.7051 100.03 63.64 87.4209C64.373 92.6851 65.037 98.5439 65.037 103.273Z" fill="#231815"/>
<path id="&#227;&#131;&#145;&#227;&#130;&#185; 94" d="M159.649 67.302C157.707 67.302 156.794 68.134 154.891 70.0371C152.65 72.343 147.989 77.1409 141.768 81.3921C134.226 86.5459 126.925 89.1589 120.066 89.1589C108.134 89.1589 94.201 82.175 94.201 62.4929C94.201 37.1421 115.342 9.30493 134.594 9.30493C141.045 9.30493 143.934 14.3979 143.934 19.446C143.934 24.8831 142.222 29.5259 140.638 31.531C139.524 32.9219 138.738 34.064 138.738 36.105C138.738 38.6101 141.145 40.8909 143.789 40.8909C145.379 40.8909 147.622 40.2471 149.284 37.155C151.389 33.1079 153.64 26.47 153.64 19.979C153.64 7.28198 146.552 0 134.193 0C110.441 0 84.3621 32.636 84.3621 62.3589C84.3621 87.3921 102.227 98.5979 119.935 98.5979C140.347 98.5979 158.744 80.2239 162.554 75.304C162.582 75.2671 162.609 75.228 162.635 75.1899C163.498 73.894 163.901 72.8669 163.901 71.9551C163.901 69.3459 162.034 67.302 159.649 67.302Z" fill="#231815"/>
<path id="&#227;&#131;&#145;&#227;&#130;&#185; 95" d="M233.347 63.7029C231.962 63.7029 230.959 64.363 230.309 64.885C230.198 64.9661 228.155 66.4629 225.457 68.7261C224.72 65.0391 224.035 62.2119 223.369 59.459L223.151 58.5601C222.316 55.0979 221.594 52.1079 221.462 50.4031C221.138 47.5979 220.242 44.3779 216.155 44.3779C212.99 44.3779 211.176 47.4819 209.459 50.917C201.918 65.4961 185.562 88.625 173.775 88.625C166.112 88.625 164.967 81.52 164.967 77.2849C164.967 50.5359 198.715 12.2371 222.286 12.2371C224.894 12.2371 230.96 12.9131 230.96 19.178C230.96 26.7571 227.034 30.679 225.279 32.4331C223.932 33.7791 223.097 35.042 223.097 37.1699C223.097 39.8369 225.411 42.0889 228.15 42.0889C230.608 42.0889 232.095 40.551 233.398 38.9871C236.032 35.876 240.932 30.083 240.932 19.0449C240.932 9.09399 233.613 2.66406 222.286 2.66406C193.185 2.66406 154.595 45.2051 154.595 77.2849C154.595 89.908 162.019 98.064 173.508 98.064C181.226 98.064 189.765 92.9441 198.888 82.8489C205.303 75.75 210.624 67.6929 213.928 62.24C214.612 65.655 215.56 70.5769 216.549 76.3059C204.333 87.9451 190.179 104.835 190.179 120.598C190.179 129.861 197.106 136.846 206.293 136.846C221.247 136.846 229.071 120.292 229.071 103.939C229.071 96.448 228.347 87.3169 227.077 78.7209C231.515 74.812 234.914 72.321 235.383 72.0081C235.441 71.97 235.498 71.926 235.553 71.8821C236.787 70.853 237.467 69.5061 237.467 68.0889C237.467 65.7119 235.581 63.7029 233.347 63.7029ZM219.632 103.273C219.632 119.292 213.056 127.673 206.56 127.673C202.158 127.673 200.018 125.359 200.018 120.598C200.018 111.45 206.3 100.03 218.235 87.4209C218.968 92.6851 219.632 98.5439 219.632 103.273Z" fill="#231815"/>
</g>
</svg>
